X:1
T:Sailor's Polka
M:2/4
L:1/8
R:Polka
%%printtempo 0
Q:120
K:G
"G"B>d BA|GB DG|"D"FA/F/ ED|"G"BD GA|B>d BA|GB DG|
"D"FA/F/ EF|1 "G"G2 G>A:|2"G"G2 G/A/B/c/|:dB GB |"Am"Ac E>A|"D"cA FE|
"G"GB d>B|dB GB |"Am"Ac E>A|"D"cA FD |1"G"G2 G>B:|2"G"G2 G2|]
